X:153
T: WIE RUHEST DU SO STILLE
N: F0285
O: Europa, Mitteleuropa, Deutschland
R: Jugend - Lied, Jahreszeiten, Winter
M: 2/4
L: 1/16
K: G
A2 | B3Bc2F2 | A2G2z2
B2 | c3cc2B2 | B2A2z2
A2 | B3ed2^c2 | d4z2
d2 | A3AB2B2 | B2c2z2
A2 | G3GG2A2 | c2B2z2
B2 | c2B2e4- | e2dcB2A2 | G4z2

